Sources/FrostedUI/Resources/Icons.xcassets/volumeHigh16.imageset/volume-high-16.svg

<svg width="16" height="16" viewBox="0 0 16 16" fill="none" xmlns="http://www.w3.org/2000/svg" data-fui-icon="true">
  <path
    d="M6.84961 2.2262C7.72405 1.57568 8.99969 2.19389 9 3.31409V12.6852C9 13.842 7.63984 14.4633 6.76562 13.7057L4.57227 11.8053C4.34504 11.6085 4.05453 11.4996 3.75391 11.4996H2.75C1.7835 11.4996 1 10.7161 1 9.74963V6.24963C1.00022 5.28332 1.78364 4.49963 2.75 4.49963H3.75391C4.05462 4.49963 4.34501 4.3909 4.57227 4.19397L6.76562 2.29358L6.84961 2.2262ZM5.55469 5.32776C5.05473 5.76099 4.41546 5.99963 3.75391 5.99963H2.75C2.61206 5.99963 2.50022 6.11175 2.5 6.24963V9.74963C2.5 9.8877 2.61193 9.99963 2.75 9.99963H3.75391C4.41537 9.99963 5.05476 10.2384 5.55469 10.6715L7.5 12.3561V3.64221L5.55469 5.32776ZM12.4434 3.9967C12.7211 3.68977 13.1957 3.66563 13.5029 3.94299L13.0713 4.42053L13.5039 3.94397L13.5059 3.94592C13.5066 3.9466 13.5079 3.94715 13.5088 3.94788L13.5938 4.03284C13.6408 4.08169 13.7035 4.15021 13.7754 4.23792C13.9192 4.41339 14.1036 4.66837 14.2852 5.00452C14.6501 5.68039 14.9999 6.67723 15 7.99963C15 9.32203 14.6501 10.3188 14.2852 10.9948C14.1037 11.3309 13.9192 11.5858 13.7754 11.7614C13.7035 11.8491 13.6408 11.9175 13.5938 11.9664L13.5088 12.0514C13.508 12.0522 13.5067 12.0527 13.5059 12.0533L13.5029 12.0563C13.1957 12.3339 12.7211 12.3098 12.4434 12.0026C12.1678 11.6973 12.1897 11.2272 12.4912 10.9489L12.4922 10.9469C12.4952 10.944 12.5033 10.9372 12.5137 10.9264C12.535 10.9042 12.5704 10.8649 12.6152 10.8102C12.7057 10.6997 12.8342 10.5239 12.9648 10.2819C13.2248 9.80028 13.5 9.0467 13.5 7.99963C13.4999 6.95255 13.2248 6.19891 12.9648 5.71741C12.8341 5.47535 12.7057 5.29946 12.6152 5.18909C12.5703 5.13429 12.535 5.09504 12.5137 5.07288C12.5031 5.06194 12.4951 5.05516 12.4922 5.05237C12.4914 5.05151 12.4912 5.05042 12.4912 5.05042C12.1898 4.77195 12.1676 4.30191 12.4434 3.9967ZM10.4414 5.49963C10.7176 5.19134 11.1914 5.16516 11.5 5.44104L11.0391 5.95569C11.4904 5.45128 11.5005 5.44102 11.501 5.44104V5.44202L11.502 5.44299C11.5027 5.44365 11.504 5.44425 11.5049 5.44495C11.5066 5.44654 11.5087 5.44885 11.5107 5.45081C11.515 5.45476 11.5207 5.45912 11.5264 5.46448C11.5378 5.47536 11.552 5.48978 11.5684 5.50647C11.6011 5.53996 11.6434 5.58602 11.6914 5.64319C11.7876 5.75771 11.9098 5.92171 12.0293 6.1344C12.2699 6.56305 12.4999 7.18851 12.5 7.99963C12.5 8.81076 12.2699 9.43615 12.0293 9.86487C11.9098 10.0776 11.7876 10.2415 11.6914 10.3561C11.6434 10.4132 11.6012 10.4593 11.5684 10.4928C11.552 10.5095 11.5378 10.5239 11.5264 10.5348C11.5207 10.5402 11.515 10.5445 11.5107 10.5485C11.5087 10.5504 11.5066 10.5527 11.5049 10.5543C11.5041 10.5551 11.5027 10.5557 11.502 10.5563L11.501 10.5573V10.5582C11.4984 10.5559 11.4649 10.5192 11 9.99963L11.5 10.5582C11.1913 10.8344 10.7176 10.8082 10.4414 10.4996C10.168 10.1938 10.1908 9.72603 10.4912 9.44885C10.492 9.44795 10.4936 9.44555 10.4961 9.44299C10.5044 9.43454 10.5212 9.41718 10.543 9.39124C10.5873 9.33844 10.653 9.25105 10.7207 9.13049C10.8549 8.89146 11 8.51677 11 7.99963C10.9999 7.48248 10.8549 7.10773 10.7207 6.86877C10.653 6.74819 10.5873 6.66076 10.543 6.60803C10.5211 6.58201 10.5043 6.56462 10.4961 6.55627L10.4932 6.55237L10.498 6.55725H10.499L10.4453 6.50452C10.1893 6.22372 10.1826 5.78895 10.4414 5.49963Z"
    fill="currentColor"
  />
</svg>

<svg xmlns="http://www.w3.org/2000/svg" width="16" height="16" fill="none" data-fui-icon="true" viewBox="0 0 16 16"><path fill="currentColor" d="M6.85 2.226C7.724 1.576 9 2.194 9 3.314v9.371c0 1.157-1.36 1.778-2.234 1.02l-2.194-1.9a1.25 1.25 0 0 0-.818-.305H2.75A1.75 1.75 0 0 1 1 9.75v-3.5c0-.967.784-1.75 1.75-1.75h1.004c.3 0 .591-.11.818-.306l2.194-1.9zM5.555 5.328A2.75 2.75 0 0 1 3.754 6H2.75a.25.25 0 0 0-.25.25v3.5c0 .138.112.25.25.25h1.004c.661 0 1.3.238 1.8.672L7.5 12.356V3.642zm6.888-1.331a.75.75 0 0 1 1.06-.054l-.432.478.433-.477.002.002.003.002.085.085q.072.073.181.205c.144.175.329.43.51.767C14.65 5.68 15 6.677 15 8c0 1.322-.35 2.319-.715 2.995a5 5 0 0 1-.51.766 4 4 0 0 1-.181.205l-.085.085-.003.002-.003.003a.75.75 0 0 1-1.012-1.107l.001-.002.022-.02q.033-.034.101-.117c.09-.11.22-.286.35-.528.26-.482.535-1.235.535-2.282s-.275-1.801-.535-2.283a3.3 3.3 0 0 0-.451-.644q-.016-.017-.022-.02V5.05a.75.75 0 0 1-.049-1.053M10.441 5.5A.75.75 0 0 1 11.5 5.44l-.46.515c.45-.505.46-.515.461-.515v.001l.001.001.003.002.006.006.015.013a2 2 0 0 1 .165.18c.097.114.219.278.338.49.24.429.47 1.055.471 1.866 0 .81-.23 1.436-.47 1.865a3.2 3.2 0 0 1-.462.628l-.042.042-.015.014-.006.005-.003.002-.001.001v.001L11 10l.5.558a.75.75 0 0 1-1.009-1.11l.005-.005.047-.052c.044-.053.11-.14.178-.26C10.855 8.89 11 8.516 11 8c0-.518-.145-.892-.28-1.131a1.7 1.7 0 0 0-.224-.313l-.003-.004.005.005h.001l-.054-.052a.75.75 0 0 1-.004-1.005"/></svg>
